public/library/onre-icon-light.svg

<svg xmlns="http://www.w3.org/2000/svg" width="2214" height="2000" fill="none" viewBox="0 0 2214 2000"><path fill="#18272b" d="M1234.79 500H979.205c-276.13 0-499.998 223.869-499.998 500s223.868 500 499.998 500h255.585c276.13 0 500-223.87 500-500s-223.87-500-500-500m46.55 738.17c-165.37 27.04-306.035-113.89-278.99-278.992 16.38-100.104 97.24-180.707 197.34-197.348 165.37-27.041 306.03 113.885 278.99 278.99-16.38 100.11-97.24 180.71-197.34 197.35"/></svg>

<svg width="2214" height="2000" viewBox="0 0 2214 2000" fill="none" xmlns="http://www.w3.org/2000/svg">
<path d="M1234.79 500H979.205C703.075 500 479.207 723.869 479.207 1000C479.207 1276.13 703.075 1500 979.205 1500H1234.79C1510.92 1500 1734.79 1276.13 1734.79 1000C1734.79 723.869 1510.92 500 1234.79 500ZM1281.34 1238.17C1115.97 1265.21 975.305 1124.28 1002.35 959.178C1018.73 859.074 1099.59 778.471 1199.69 761.83C1365.06 734.789 1505.72 875.715 1478.68 1040.82C1462.3 1140.93 1381.44 1221.53 1281.34 1238.17Z" fill="#18272B"/>
</svg>
